packages/bpk-svgs/src/icons/sm/breakfast-tick.svg

<svg xmlns="http://www.w3.org/2000/svg" viewBox="0 0 18 18" enable-background="new 0 0 18 18"><path d="M2 14h14v.4c0 .884-.627 1.6-1.4 1.6h-11.2c-.773 0-1.4-.716-1.4-1.6v-.4zm15-8.638v2.298c-.003 1.712-1.306 3.142-3.01 3.306-.051 1.129-1.261 2.034-2.52 2.034h-4.94c-1.287 0-2.53-.943-2.53-2.106v-7.894h10v1h1.438c.863 0 1.562.499 1.562 1.362zm-4.637.282l-.603-.542c-.161-.146-.409-.133-.555.028l-.01.011-3.201 3.753c-.056.066-.155.075-.221.019l-.005-.004-1.08-.939c-.162-.145-.411-.132-.556.03l-.009.01-.525.622c-.145.173-.127.429.04.58l1.802 1.586c.321.291.817.266 1.107-.055l.021-.024 3.832-4.494c.147-.172.13-.429-.037-.581zm3.637-.282c0-.315-.352-.362-.562-.362h-1.438v4.966c1.146-.167 1.996-1.147 2-2.305v-2.299z"/></svg>

<svg xmlns="http://www.w3.org/2000/svg" viewBox="0 0 18 18"><path d="M2 14h14v.4c0 .884-.627 1.6-1.4 1.6H3.4c-.773 0-1.4-.716-1.4-1.6V14zm15-8.638V7.66a3.328 3.328 0 0 1-3.01 3.306C13.939 12.095 12.729 13 11.47 13H6.53C5.243 13 4 12.057 4 10.894V3h10v1h1.438C16.301 4 17 4.499 17 5.362zm-4.637.282l-.603-.542a.393.393 0 0 0-.555.028l-.01.011-3.201 3.753a.157.157 0 0 1-.221.019l-.005-.004-1.08-.939a.394.394 0 0 0-.556.03l-.009.01-.525.622a.419.419 0 0 0 .04.58l1.802 1.586a.783.783 0 0 0 1.107-.055l.021-.024L12.4 6.225a.418.418 0 0 0-.037-.581zM16 5.362c0-.315-.352-.362-.562-.362H14v4.966a2.337 2.337 0 0 0 2-2.305V5.362z"/></svg>
